svg/part/dress_line.svg

<svg xmlns="http://www.w3.org/2000/svg" width="24" height="24" viewBox="0 0 24 24"><g fill="none" fill-rule="evenodd"><path d="M24,0 L24,24 L0,24 L0,0 L24,0 Z M12.5935,23.2578 L12.5819,23.2595 L12.5109,23.295 L12.4919,23.2987 L12.4767,23.295 L12.4057,23.2595 C12.3958,23.2564 12.387,23.259 12.3821,23.2649 L12.378,23.2758 L12.3609,23.7031 L12.3659,23.7235 L12.3769,23.7357 L12.4805,23.8097 L12.4953,23.8136 L12.5071,23.8097 L12.6107,23.7357 L12.6233,23.7197 L12.6267,23.7031 L12.6096,23.2758 C12.6076,23.2657 12.601,23.2593 12.5935,23.2578 Z M12.8584,23.1453 L12.8445,23.1473 L12.6598,23.2397 L12.6499,23.2499 L12.6472,23.2611 L12.6651,23.6906 L12.6699,23.7034 L12.6784,23.7105 L12.8793,23.8032 C12.8914,23.8069 12.9022,23.803 12.9078,23.7952 L12.9118,23.7812 L12.8777,23.1665 C12.8753,23.1546 12.8674,23.147 12.8584,23.1453 Z M12.143,23.1473 C12.1332,23.1424 12.1222,23.1453 12.1156,23.1526 L12.1099,23.1665 L12.0758,23.7812 C12.0751,23.7927 12.0828,23.8019 12.0926,23.8046 L12.1083,23.8032 L12.3092,23.7105 L12.3186,23.7024 L12.3225,23.6906 L12.3404,23.2611 L12.3372,23.2485 L12.3278,23.2397 L12.143,23.1473 Z"/><path fill="#09244B" d="M9.17071,2 C9.552139,2 9.8962918,2.2163996 10.0642356,2.55098063 L10.1135,2.66675 C10.3886,3.4449 11.1307,4 12,4 C12.8149688,4 13.5181406,3.51211914 13.8295291,2.80995819 L13.8865,2.66675 C14.01358,2.307119 14.332306,2.0547563 14.7037306,2.00788007 L14.8293,2 L15,2 C17.6887316,2 19.8818169,4.12231026 19.9953804,6.78311066 L20,7 L20,7.5 C20,8.27969882 19.4050879,8.920449 18.6444558,8.99313345 L18.5,9 L16,9 L16,9.94766 C16,10.3450325 16.1183656,10.7320384 16.3380139,11.0601353 L16.4383,11.197 L18.4661,13.7318 C19.3969437,14.895425 19.9306098,16.3236008 19.9936819,17.807285 L20,18.1047 L20,19 C20,20.597725 18.7511226,21.903664 17.1762773,21.9949075 L17,22 L7,22 C5.40232321,22 4.09633941,20.7511226 4.00509271,19.1762773 L4,19 L4,18.1047 C4,16.6145437 4.47546191,15.1659598 5.35306024,13.9679904 L5.53392,13.7318 L7.56174,11.197 C7.8099775,10.886725 7.95934219,10.5106063 7.99280465,10.1171863 L8,9.94766 L8,9 L5.5,9 C4.72030118,9 4.079551,8.40511446 4.00686655,7.64446046 L4,7.5 L4,7 C4,4.31124895 6.12231026,2.11818208 8.78311066,2.00461952 L9,2 L9.17071,2 Z M14.5666,12 L9.43336,12 C9.34073,12.155 9.2373,12.3042 9.12348,12.4464 L7.09566,14.9812 C6.3864,15.8678 6,16.9693 6,18.1047 L6,19 C6,19.5523 6.44772,20 7,20 L17,20 C17.5523,20 18,19.5523 18,19 L18,18.1047 C18,16.9693 17.6136,15.8678 16.9043,14.9812 L14.8765,12.4464 C14.7627,12.3042 14.6593,12.155 14.5666,12 Z M15.4454,4.03283 C14.7497,5.20952 13.4681,6 12,6 C10.5319,6 9.25032,5.20953 8.55463,4.03283 C7.1668156,4.239374 6.08925784,5.39641016 6.00527372,6.82063033 L6,7 L8,7 C9.05436227,7 9.91816517,7.81587733 9.99451427,8.85073759 L10,9 L9.99966,10 L14.0003,10 L14,9 C14,7.94563773 14.81585,7.08183483 15.8507339,7.00548573 L16,7 L18,7 C18,5.49448 16.891,4.24798 15.4454,4.03283 Z"/></g></svg>

<svg xmlns="http://www.w3.org/2000/svg" width="24" height="24"><g fill="none" fill-rule="evenodd"><path d="M24 0v24H0V0zM12.594 23.258l-.012.002-.071.035-.02.004-.014-.004-.071-.036c-.01-.003-.019 0-.024.006l-.004.01-.017.428.005.02.01.013.104.074.015.004.012-.004.104-.074.012-.016.004-.017-.017-.427c-.002-.01-.009-.017-.016-.018m.264-.113-.014.002-.184.093-.01.01-.003.011.018.43.005.012.008.008.201.092c.012.004.023 0 .029-.008l.004-.014-.034-.614c-.003-.012-.01-.02-.02-.022m-.715.002a.023.023 0 0 0-.027.006l-.006.014-.034.614c0 .012.007.02.017.024l.015-.002.201-.093.01-.008.003-.011.018-.43-.003-.012-.01-.01z"/><path fill="#09244B" d="M9.17 2a1 1 0 0 1 .894.551l.05.116a2.001 2.001 0 0 0 3.716.143l.056-.143a1 1 0 0 1 .818-.66L14.829 2H15a5 5 0 0 1 4.995 4.783L20 7v.5a1.5 1.5 0 0 1-1.356 1.493L18.5 9H16v.948a2 2 0 0 0 .338 1.112l.1.137 2.028 2.535a7 7 0 0 1 1.528 4.075l.006.298V19a3 3 0 0 1-2.824 2.995L17 22H7a3 3 0 0 1-2.995-2.824L4 19v-.895a7 7 0 0 1 1.353-4.137l.18-.236 2.029-2.535a2 2 0 0 0 .43-1.08L8 9.947V9H5.5a1.5 1.5 0 0 1-1.493-1.356L4 7.5V7a5 5 0 0 1 4.783-4.995L9 2zm5.397 10H9.433a3.989 3.989 0 0 1-.31.446l-2.027 2.535A5 5 0 0 0 6 18.105V19a1 1 0 0 0 1 1h10a1 1 0 0 0 1-1v-.895a5 5 0 0 0-1.096-3.124l-2.027-2.535a4 4 0 0 1-.31-.446m.878-7.967A3.997 3.997 0 0 1 12 6c-1.468 0-2.75-.79-3.445-1.967a3.001 3.001 0 0 0-2.55 2.788L6 7h2a2 2 0 0 1 1.995 1.85L10 9v1h4V9a2 2 0 0 1 1.85-1.995L16 7h2a3 3 0 0 0-2.555-2.967"/></g></svg>
